svg/black/rlc.svg

<svg xmlns="http://www.w3.org/2000/svg" width="32" height="32" viewBox="0 0 32 32">
  <path fill-rule="evenodd" d="M16,32 C7.163444,32 0,24.836556 0,16 C0,7.163444 7.163444,0 16,0 C24.836556,0 32,7.163444 32,16 C32,24.836556 24.836556,32 16,32 Z M23.683432,12.8858243 C22.0532544,13.0572515 20.816568,14.5429542 20.9289941,16.2000842 C20.9289941,16.6572235 20.760355,17.0572203 20.3668639,17.28579 C20.1982249,17.4000748 19.9733728,17.4572172 19.7485207,17.4572172 C19.5236686,17.4572172 19.3550296,17.4000748 19.1301775,17.28579 C18.6242604,17.0000779 18.0621302,16.8286507 17.5,16.8286507 L17.1627219,16.8286507 C15.5325444,17.0000779 14.352071,18.4857806 14.464497,20.1429106 C14.464497,20.6000499 14.295858,21.0000468 13.9023669,21.2286164 C13.7337278,21.3429012 13.5088757,21.4000436 13.2840237,21.4000436 C13.0591716,21.4000436 12.8905325,21.3429012 12.7218935,21.2286164 C12.2159763,20.9429043 11.6538462,20.7714771 11.091716,20.7714771 L10.7544379,20.7714771 C9.23668639,20.9429043 8.11242604,22.2571798 8.05621302,23.8571673 C8.05621302,25.5714397 9.40532544,27 11.091716,27 L11.3727811,27 C12.8343195,26.8285728 14.0147929,25.6857245 14.1272189,24.2000218 L14.1272189,23.6857401 C14.1272189,23.2286008 14.295858,22.8286039 14.6893491,22.6000343 C14.8579882,22.4857495 15.0828402,22.428607 15.3076923,22.428607 C15.5325444,22.428607 15.7011834,22.4857495 15.9260355,22.6000343 C16.4319527,22.8857463 16.9940828,23.0571736 17.556213,23.0571736 L17.8934911,23.0571736 C19.3550296,22.8857463 20.4792899,21.6857557 20.591716,20.2571954 L20.591716,19.7429137 C20.591716,19.2857744 20.760355,18.8857775 21.1538462,18.6572079 C21.3224852,18.542923 21.5473373,18.4857806 21.7721893,18.4857806 C21.9970414,18.4857806 22.1656805,18.542923 22.3343195,18.6572079 C22.8402367,18.9429199 23.4023669,19.1143472 23.964497,19.1143472 L24.3017751,19.1143472 C25.8195266,18.8286351 27,17.571502 27,15.9715145 C27,14.2572422 25.6508876,12.8286819 23.964497,12.8286819 C23.852071,12.8286819 23.739645,12.8286819 23.683432,12.8858243 Z M17.2189349,8.94305499 C15.5887574,9.11448222 14.352071,10.6001849 14.464497,12.2573149 C14.464497,12.7144542 14.295858,13.1144511 13.9023669,13.3430207 C13.7337278,13.4573055 13.5088757,13.5144479 13.2840237,13.5144479 C13.0591716,13.5144479 12.8905325,13.4573055 12.7218935,13.3430207 C12.2159763,13.0573086 11.6538462,12.8858814 11.091716,12.8858814 L10.7544379,12.8858814 C9.23668639,13.1144511 8.11242604,14.3715841 8.11242604,15.9144292 C8.11242604,17.6287016 9.46153846,19.0572619 11.147929,19.0572619 L11.4289941,19.0572619 C12.8905325,18.8852632 14.0710059,17.742415 14.183432,16.2572837 L14.183432,15.743002 C14.183432,15.2858627 14.352071,14.8858658 14.7455621,14.6572962 C14.9142012,14.5430114 15.1390533,14.4858689 15.3639053,14.4858689 C15.5887574,14.4858689 15.7573964,14.5430114 15.9260355,14.6572962 C16.4319527,14.9430082 16.9940828,15.1144355 17.556213,15.1144355 L17.8934911,15.1144355 C19.4112426,14.9430082 20.535503,13.6287328 20.591716,12.0287452 C20.591716,10.3144729 19.2426036,8.88591258 17.556213,8.88591258 C17.387574,8.88591258 17.3313609,8.88591258 17.2189349,8.94305499 Z M11.035503,5 C9.35923077,5 8,6.38170352 8,8.08569024 C8,9.78967696 9.35923077,11.1713805 11.035503,11.1713805 C12.7117751,11.1713805 14.0710059,9.78967696 14.0710059,8.08569024 C14.0710059,6.38170352 12.7117751,5 11.035503,5 Z"/>
</svg>

<svg xmlns="http://www.w3.org/2000/svg" width="32" height="32"><path fill-rule="evenodd" d="M16 32C7.163 32 0 24.837 0 16S7.163 0 16 0s16 7.163 16 16-7.163 16-16 16zm7.683-19.114c-1.63.171-2.866 1.657-2.754 3.314 0 .457-.169.857-.562 1.086a1.12 1.12 0 0 1-.618.171c-.225 0-.394-.057-.619-.171-.506-.286-1.068-.457-1.63-.457h-.337c-1.63.171-2.81 1.657-2.699 3.314 0 .457-.168.857-.562 1.086a1.12 1.12 0 0 1-.618.171.939.939 0 0 1-.562-.171c-.506-.286-1.068-.458-1.63-.458h-.338c-1.517.172-2.642 1.486-2.698 3.086 0 1.714 1.35 3.143 3.036 3.143h.28c1.462-.171 2.643-1.314 2.755-2.8v-.514c0-.457.169-.857.562-1.086a1.12 1.12 0 0 1 .619-.171c.225 0 .393.057.618.171.506.286 1.068.457 1.63.457h.337a3.08 3.08 0 0 0 2.699-2.8v-.514c0-.457.168-.857.562-1.086a1.12 1.12 0 0 1 .618-.171c.225 0 .394.057.562.171.506.286 1.068.457 1.63.457h.338C25.82 18.83 27 17.572 27 15.972c0-1.715-1.35-3.143-3.036-3.143-.112 0-.224 0-.28.057zM17.22 8.943c-1.63.171-2.867 1.657-2.755 3.314 0 .457-.168.857-.562 1.086a1.12 1.12 0 0 1-.618.171.939.939 0 0 1-.562-.171c-.506-.286-1.068-.457-1.63-.457h-.338c-1.517.228-2.642 1.486-2.642 3.028 0 1.715 1.35 3.143 3.036 3.143h.281c1.462-.172 2.642-1.315 2.754-2.8v-.514c0-.457.17-.857.563-1.086a1.12 1.12 0 0 1 .618-.171c.225 0 .393.057.562.171.506.286 1.068.457 1.63.457h.337c1.518-.171 2.643-1.485 2.699-3.085 0-1.715-1.35-3.143-3.036-3.143-.168 0-.225 0-.337.057zM11.036 5C9.359 5 8 6.382 8 8.086s1.36 3.085 3.036 3.085S14.07 9.79 14.07 8.086 12.711 5 11.036 5z"/></svg>
